svgs/thin/chart-tree-map.svg

<svg xmlns="http://www.w3.org/2000/svg" viewBox="0 0 512 512"><!--! Font Awesome Pro 6.0.0-alpha3 by @fontawesome - https://fontawesome.com License - https://fontawesome.com/license (Commercial License) --><path d="M480 32h-192c-17.67 0-32 14.33-32 32v64c0 17.67 14.33 32 32 32h192c17.67 0 32-14.33 32-32V64C512 46.33 497.7 32 480 32zM496 128c0 8.822-7.178 16-16 16h-192c-8.822 0-16-7.178-16-16V64c0-8.822 7.178-16 16-16h192c8.822 0 16 7.178 16 16V128zM480 192h-192c-17.67 0-32 14.33-32 32v64c0 17.67 14.33 32 32 32h192c17.67 0 32-14.33 32-32V224C512 206.3 497.7 192 480 192zM496 288c0 8.822-7.178 16-16 16h-192c-8.822 0-16-7.178-16-16V224c0-8.822 7.178-16 16-16h192c8.822 0 16 7.178 16 16V288zM480 352h-192c-17.67 0-32 14.33-32 32v64c0 17.67 14.33 32 32 32h192c17.67 0 32-14.33 32-32v-64C512 366.3 497.7 352 480 352zM496 448c0 8.822-7.178 16-16 16h-192c-8.822 0-16-7.178-16-16v-64c0-8.822 7.178-16 16-16h192c8.822 0 16 7.178 16 16V448zM192 272H32c-17.67 0-32 14.33-32 32V448c0 17.67 14.33 32 32 32h160c17.67 0 32-14.33 32-32V304C224 286.3 209.7 272 192 272zM208 448c0 8.822-7.178 16-16 16H32c-8.822 0-16-7.178-16-16V304C16 295.2 23.18 288 32 288h160c8.822 0 16 7.178 16 16V448zM192 32H32C14.33 32 0 46.33 0 64v144c0 17.67 14.33 32 32 32h160c17.67 0 32-14.33 32-32V64C224 46.33 209.7 32 192 32zM208 208C208 216.8 200.8 224 192 224H32C23.18 224 16 216.8 16 208V64c0-8.822 7.178-16 16-16h160c8.822 0 16 7.178 16 16V208z"/></svg>

<svg xmlns="http://www.w3.org/2000/svg" viewBox="0 0 512 512"><!-- Font Awesome Pro 6.0.0-alpha2 by @fontawesome - https://fontawesome.com License - https://fontawesome.com/license (Commercial License) --><path d="M480 32H288C270.326 32 256 46.326 256 64V128C256 145.672 270.326 160 288 160H480C497.674 160 512 145.672 512 128V64C512 46.326 497.674 32 480 32ZM496 128C496 136.822 488.822 144 480 144H288C279.178 144 272 136.822 272 128V64C272 55.178 279.178 48 288 48H480C488.822 48 496 55.178 496 64V128ZM480 192H288C270.326 192 256 206.326 256 224V288C256 305.672 270.326 320 288 320H480C497.674 320 512 305.672 512 288V224C512 206.326 497.674 192 480 192ZM496 288C496 296.822 488.822 304 480 304H288C279.178 304 272 296.822 272 288V224C272 215.178 279.178 208 288 208H480C488.822 208 496 215.178 496 224V288ZM480 352H288C270.326 352 256 366.326 256 384V448C256 465.672 270.326 480 288 480H480C497.674 480 512 465.672 512 448V384C512 366.326 497.674 352 480 352ZM496 448C496 456.822 488.822 464 480 464H288C279.178 464 272 456.822 272 448V384C272 375.178 279.178 368 288 368H480C488.822 368 496 375.178 496 384V448ZM192 272H32C14.328 272 0 286.326 0 304V448C0 465.672 14.328 480 32 480H192C209.674 480 224 465.672 224 448V304C224 286.326 209.674 272 192 272ZM208 448C208 456.822 200.822 464 192 464H32C23.178 464 16 456.822 16 448V304C16 295.178 23.178 288 32 288H192C200.822 288 208 295.178 208 304V448ZM192 32H32C14.328 32 0 46.326 0 64V208C0 225.672 14.328 240 32 240H192C209.674 240 224 225.672 224 208V64C224 46.326 209.674 32 192 32ZM208 208C208 216.822 200.822 224 192 224H32C23.178 224 16 216.822 16 208V64C16 55.178 23.178 48 32 48H192C200.822 48 208 55.178 208 64V208Z"/></svg>
